X:12
%%score 1 2
%%staffscale 1.0
T:The Kinges hunt is upp.
M:6/8
L:1/8
K:Eb
V:1 clef=treble
V:2 clef=bass octave=-1
V:1
B|[Ge]2B (G>A)B|[Ge]2B (G>A)B|(c>B)A (G>F)E|
w:The hunt is up, the* hunt is up,* And it* is well* nigh
V:2
z|[EB]6|[EB]6|[A,A]3 [EB]3|
V:1
[DF]3-[DF]2 [DB]|cAB c2 B & E3-E2 [EG]|(A>G)A B2 B & E2 D E2 [EG]|(c>d)e (d>e)f & E3 A3|[Ge]3-[Ge]3||
w:day;* And Harry* our King is gone* hunting,* To bring* his deer* to bay.*
V:2
[B,B]DF B2B|A3-A2E|F3G2E|A3 [B,B]3|[EB]3-[EB]3||

